packages/kaspersky-hexa-ui-icons/src/iconsSVGs/48/FolderOpen.svg

<svg width="48" height="48" viewBox="0 0 48 48" fill="none" xmlns="http://www.w3.org/2000/svg">
<path fill-rule="evenodd" clip-rule="evenodd" d="M45.9364 15V8H20.4262L17.4355 5H2.07352V15H0L2.1433 43H45.8567L48 15H45.9364ZM4.06729 7H16.6181L19.6087 10H43.9427V15H4.06729V7ZM44.0125 41H3.98754L2.15327 17H45.8567L44.0125 41Z"  fill="currentColor"/>
</svg>

<svg xmlns="http://www.w3.org/2000/svg" width="48" height="48" fill="none" viewBox="0 0 48 48"><path fill="currentColor" fill-rule="evenodd" d="M45.9364 15V8H20.4262l-2.9907-3H2.0735v10H0l2.1433 28h43.7134L48 15zM4.0673 7H16.618l2.9906 3h24.334v5H4.0673zm39.9452 34H3.9875L2.1533 17h43.7034z" clip-rule="evenodd"/></svg>
